X:1
T:Da unten im Tale
T:Da unten im Tale
T:Kretzschmer, 1840
T:Sats: Johannes Brahms (1833-1897)
C:Sats: Johannes Brahms (1833-1897)
%%score [ 1 2 3 4 ]
L:1/8
Q:1/4=80
M:3/4
K:E
V:1 treble nm="Soprano"
V:2 treble nm="Alto"
V:3 treble-8 nm="Tenor"
V:4 bass nm="Bass"
V:1
"^Sanft bewegt"!p! (E F) | G2 G3 A | c3 B B2 | B3 A A2 | (A2 G) z G G | G2 F z z F | %6
w: 1.Da _|un- ten im|Ta- le läufts|Was- ser so|trüb, _ und i|kann dirs nit|
w: 2.Sprichst _|all- weil von|Lie- be, sprichst|all- weil von|Treu, _ und a|bis- se- le|
w: 3.Und _|wenn i dirs|zehn- mal sag,|dass i di|lieb, _ und du|willst nit ver-|
w: 4.Für die|Zeit, wo du|gliebt mi hast,|dank i dir|schön, _ und i|wünsch, dass dirs|
 (F3/2 E/) E z z!<(! G!<)! |!>(! A3!>)! D (D D) | E2 z2 |] %9
w: sa- * gen, i|hab di so _|lieb.|
w: Falsch- * heit is|au wohl da- *|bei.|
w: ste- * hen, muss|i halt wei- ter-|gehn.|
w: an- ders- wo *|bes- ser mag _|gehn.|
V:2
!p! (E D) | E2 E3 F | A3 G G2 | G3 F F2 | (F2 E) z G G | G2 F z z F | (F3/2 E/) E z z!<(! E!<)! | %7
w: 1.Da _|un- ten im|Ta- le läufts|Was- ser so|trüb, _ und i|kann dirs nit|sa- * gen, i|
w: 2.Sprichst _|all- weil von|Lie- be, sprichst|all- weil von|Treu, _ und a|bis- se- le|Falsch- * heit is|
w: 3.Und _|wenn i dirs|zehn- mal sag,|dass i di|lieb, _ und du|willst nit ver-|ste- * hen, muss|
w: 4.Für die|Zeit, wo du|gliebt mi hast,|dank i dir|schön, _ und i|wünsch, dass dirs|an- ders- wo *|
!>(! D3!>)! D (B, B,) | B,2 z2 |] %9
w: hab di so _|lieb.|
w: au wohl da- *|bei.|
w: i halt wei- ter-|gehn.|
w: bes- ser mag _|gehn.|
V:3
!p! (G B) | e2 e3 e | e3 e e2 | B3 d d2 | (d2 e) z e e | c2 c z z d | (B3/2 B/) B z z!<(! c!<)! | %7
w: 1.Da _|un- ten im|Ta- le läufts|Was- ser so|trüb, _ und i|kann dirs nit|sa- * gen, i|
w: 2.Sprichst _|all- weil von|Lie- be, sprichst|all- weil von|Treu, _ und a|bis- se- le|Falsch- * heit is|
w: 3.Und _|wenn i dirs|zehn- mal sag,|dass i di|lieb, _ und du|willst nit ver-|ste- * hen, muss|
w: 4.Für die|Zeit, wo du|gliebt mi hast,|dank i dir|schön, _ und i|wünsch, dass dirs|an- ders- wo *|
!>(! c3!>)! B (A A) | G2 z2 |] %9
w: hab di so _|lieb.|
w: au wohl da- *|bei.|
w: i halt wei- ter-|gehn.|
w: bes- ser mag _|gehn.|
V:4
!p! (E, E,) | E,2 E,3 E, | E,3 E, E,2 | D,3 B,, B,,2 | C,3 z C C | A,2 A, z z B, | %6
w: 1.Da _|un- ten im|Ta- le läufts|Was- ser so|trüb, und i|kann dirs nit|
w: 2.Sprichst _|all- weil von|Lie- be, sprichst|all- weil von|Treu, und a|bis- se- le|
w: 3.Und _|wenn i dirs|zehn- mal sag,|dass i di|lieb, und du|willst nit ver-|
w: 4.Für die|Zeit, wo du|gliebt mi hast,|dank i dir|schön, und i|wünsch, dass dirs|
 (G,3/2 G,/) G, z z!<(! C,!<)! |!>(! F,3!>)! B,, (B,, B,,) | E,2 z2 |] %9
w: sa- * gen, i|hab di so _|lieb.|
w: Falsch- * heit is|au wohl da- *|bei.|
w: ste- * hen, muss|i halt wei- ter-|gehn.|
w: an- ders- wo *|bes- ser mag _|gehn.|

